X:6016
T:Gan Ainm
R:jig
S:Natalie McMaster
H:
N:
D:Solo Album #1
Z:Adrian Scahill
M:6/8
L:1/8
K:A
EAA F2A|ECA, B,A,B,|CEA GAB|cec BAF|\
EAA F2A|ECA, B,A,B,|CEA GAB|cAA A3:||\
efe ece|fdf fga|ecA ABc|BAF F2A|\
EAA cBA |fdf fga|ecA Bed|cAA A:||


